_site/images/verification-page/deposit-icon.svg

<svg fill="none" height="80" viewBox="0 0 80 80" width="80" xmlns="http://www.w3.org/2000/svg"><rect fill="#00769d" height="80" rx="25" width="80"/><path d="m56.875 42.3106v-4.6211c.6953-.7105 1.125-1.6818 1.125-2.7519 0-1.0702-.4297-2.0416-1.125-2.7519v-6.9513c0-1.7834-1.451-3.2344-3.2344-3.2344h-28.4062c-1.7834 0-3.2344 1.451-3.2344 3.2344v29.5312c0 1.7834 1.451 3.2344 3.2344 3.2344h28.4062c1.7834 0 3.2344-1.451 3.2344-3.2344v-6.9512c.6953-.7104 1.125-1.6817 1.125-2.7519s-.4297-2.0415-1.125-2.7519zm-1.125-7.3731c0 .9305-.7571 1.6875-1.6875 1.6875h-1.125v-3.375h1.125c.9304 0 1.6875.757 1.6875 1.6875zm-5.0625-2.8125v5.625 4.5 5.625 2.9531c0 .5428-.4416.9844-.9844.9844h-20.5312c-.5428 0-.9844-.4416-.9844-.9844v-21.6562c0-.5428.4416-.9844.9844-.9844h20.5312c.5428 0 .9844.4416.9844.9844zm2.25 6.75h1.125c.191 0 .3787-.0144.5625-.0409v2.3317c-.1838-.0265-.3715-.0409-.5625-.0409h-1.125zm0 4.5h1.125c.9304 0 1.6875.757 1.6875 1.6875s-.7571 1.6875-1.6875 1.6875h-1.125zm.7031 12.375h-28.4062c-.5428 0-.9844-.4416-.9844-.9844v-29.5312c0-.5428.4416-.9844.9844-.9844h28.4062c.5428 0 .9844.4416.9844.9844v5.8065c-.1838-.0265-.3715-.0409-.5625-.0409h-1.125v-1.8281c0-1.7834-1.451-3.2344-3.2344-3.2344h-20.5312c-1.7834 0-3.2344 1.451-3.2344 3.2344v21.6562c0 1.7834 1.451 3.2344 3.2344 3.2344h20.5312c1.7834 0 3.2344-1.451 3.2344-3.2344v-1.8281h1.125c.191 0 .3787-.0144.5625-.0409v5.8065c0 .5428-.4416.9844-.9844.9844z" fill="#fff"/><path d="m35.5999 37.5-2.5999 2.5 2.5999 2.5m7.8002-5 2.5999 2.5-2.5999 2.5m-5.2004 2.5 2.6-10" stroke="#fff" stroke-linecap="round" stroke-linejoin="round" stroke-width="2"/></svg>

<svg width="80" height="80" viewBox="0 0 80 80" fill="none" xmlns="http://www.w3.org/2000/svg">
<rect width="80" height="80" rx="25" fill="#00769D"/>
<path d="M56.875 42.3106V37.6895C57.5703 36.979 58 36.0077 58 34.9376C58 33.8674 57.5703 32.896 56.875 32.1857V25.2344C56.875 23.451 55.424 22 53.6406 22H25.2344C23.451 22 22 23.451 22 25.2344V54.7656C22 56.549 23.451 58 25.2344 58H53.6406C55.424 58 56.875 56.549 56.875 54.7656V47.8144C57.5703 47.104 58 46.1327 58 45.0625C58 43.9923 57.5703 43.021 56.875 42.3106ZM55.75 34.9375C55.75 35.868 54.9929 36.625 54.0625 36.625H52.9375V33.25H54.0625C54.9929 33.25 55.75 34.007 55.75 34.9375ZM50.6875 32.125V37.75V42.25V47.875V50.8281C50.6875 51.3709 50.2459 51.8125 49.7031 51.8125H29.1719C28.6291 51.8125 28.1875 51.3709 28.1875 50.8281V29.1719C28.1875 28.6291 28.6291 28.1875 29.1719 28.1875H49.7031C50.2459 28.1875 50.6875 28.6291 50.6875 29.1719V32.125ZM52.9375 38.875H54.0625C54.2535 38.875 54.4412 38.8606 54.625 38.8341V41.1658C54.4412 41.1393 54.2535 41.1249 54.0625 41.1249H52.9375V38.875ZM52.9375 43.375H54.0625C54.9929 43.375 55.75 44.132 55.75 45.0625C55.75 45.993 54.9929 46.75 54.0625 46.75H52.9375V43.375ZM53.6406 55.75H25.2344C24.6916 55.75 24.25 55.3084 24.25 54.7656V25.2344C24.25 24.6916 24.6916 24.25 25.2344 24.25H53.6406C54.1834 24.25 54.625 24.6916 54.625 25.2344V31.0409C54.4412 31.0144 54.2535 31 54.0625 31H52.9375V29.1719C52.9375 27.3885 51.4865 25.9375 49.7031 25.9375H29.1719C27.3885 25.9375 25.9375 27.3885 25.9375 29.1719V50.8281C25.9375 52.6115 27.3885 54.0625 29.1719 54.0625H49.7031C51.4865 54.0625 52.9375 52.6115 52.9375 50.8281V49H54.0625C54.2535 49 54.4412 48.9856 54.625 48.9591V54.7656C54.625 55.3084 54.1834 55.75 53.6406 55.75Z" fill="white"/>
<path d="M35.5999 37.5L33 40L35.5999 42.5M43.4001 37.5L46 40L43.4001 42.5M38.1997 45L40.7997 35" stroke="white" stroke-width="2" stroke-linecap="round" stroke-linejoin="round"/>
</svg>
